icon-svg/habbitat-ribbon.svg

<svg xmlns="http://www.w3.org/2000/svg" fill="#44739e" viewBox="0 0 24 24"><path d="M6.6 8.36c.632-.082 1.572-.137 2.195-.173.182-.01.34-.02.443-.027.84-.059 1.719-.1 3.273-.112h.361a11.5 11.5 0 0 1 2.629.316l.027.006a3.67 3.67 0 0 1 .982.323c.2.1.421.227.6.33a6.3 6.3 0 0 1-.337-.729 7 7 0 0 0-.315-.687c-.353-.636-.674-1.347-1.046-2.171-.244-.537-.519-1.147-.84-1.815a1.6 1.6 0 0 0-.072-.136 1.984 1.984 0 0 0-.791-.707 8.68 8.68 0 0 0-2.631-.713 14.3 14.3 0 0 0-1.74-.056 15.9 15.9 0 0 0-1.989.221c-.048.009-.119.025-.185.042a1.1 1.1 0 0 0-.193.062.73.73 0 0 0-.14.086.17.17 0 0 0-.052.059l-.008.021c-.02.1-.084 1.756-.14 3.216-.07 1.784-.1 2.479-.114 2.66.015 0 .037 0 .069-.01zm10.787 1.269-.115-.25a.61.61 0 0 0-.184-.238c-.178-.105-.412-.239-.626-.349a3.64 3.64 0 0 0-.955-.313l-.027-.006c-.259-.057-.5-.1-.716-.141l1.227 5.461 1.017-2.008a6.9 6.9 0 0 0 .428-1.291l.03-.166a1.3 1.3 0 0 0-.079-.699M12.995 22l3.164-.773-2.489-.281Zm.479-13.311-.603 13.29.712-1.11zm.2-.499-.035 6.116.057 6.377 2.094-6.561-1.267-5.83c-.323-.051-.602-.082-.849-.102m-6.07 12.656h5.203l.54-11.903zm3.837-10.695a1.71 1.71 0 0 0 1 .412l.922-1.912.022-.479c-.3-.014-.543-.012-.758-.01h-.108c-1.551.011-2.428.053-3.266.112-.1.007-.262.017-.445.027-.62.036-1.558.091-2.186.172H6.61c-.017 0-.036.007-.055.009.105.125.393.16.826.212a8.93 8.93 0 0 1 2.839.751 7.87 7.87 0 0 1 1.221.706m3.324-1.289.083.381.002-.002z"/></svg>

<?xml version="1.0" encoding="UTF-8"?>
<svg width="24px" fill="#44739e" height="24px" viewBox="0 0 24 24" version="1.1" xmlns="http://www.w3.org/2000/svg" xmlns:xlink="http://www.w3.org/1999/xlink">
            <path d="M 6.6,8.36 C 7.232,8.278 8.172,8.223 8.795,8.187 8.977,8.177 9.135,8.167 9.238,8.16 c 0.84,-0.059 1.719,-0.1 3.273,-0.112 h 0.108 0.253 a 11.489,11.489 0 0 1 2.629,0.316 l 0.027,0.006 a 3.668,3.668 0 0 1 0.982,0.323 c 0.2,0.1 0.421,0.227 0.6,0.33 A 6.3,6.3 0 0 1 16.773,8.294 6.977,6.977 0 0 0 16.458,7.607 C 16.105,6.971 15.784,6.26 15.412,5.436 15.168,4.899 14.893,4.289 14.572,3.621 14.561,3.597 14.537,3.548 14.5,3.485 A 1.984,1.984 0 0 0 13.709,2.778 8.675,8.675 0 0 0 11.078,2.065 14.282,14.282 0 0 0 9.338,2.009 15.916,15.916 0 0 0 7.349,2.23 C 7.301,2.239 7.23,2.255 7.164,2.272 A 1.118,1.118 0 0 0 6.971,2.334 0.733,0.733 0 0 0 6.831,2.42 0.168,0.168 0 0 0 6.779,2.479 L 6.771,2.5 c -0.02,0.1 -0.084,1.756 -0.14,3.216 -0.07,1.784 -0.1,2.479 -0.114,2.66 0.015,0 0.037,0 0.069,-0.01 z M 17.387,9.629 17.272,9.379 A 0.611,0.611 0 0 0 17.088,9.141 C 16.91,9.036 16.676,8.902 16.462,8.792 A 3.643,3.643 0 0 0 15.507,8.479 L 15.48,8.473 c -0.259,-0.057 -0.5,-0.1 -0.716,-0.141 l 1.227,5.461 1.017,-2.008 a 6.881,6.881 0 0 0 0.428,-1.291 v 0 l 0.03,-0.166 A 1.3,1.3 0 0 0 17.387,9.629 Z M 12.995,22 16.159,21.227 13.67,20.946 Z m 0.479,-13.311 -0.603,13.29 0.712,-1.11 z m 0.2,-0.499 -0.035,6.116 0.057,6.377 2.094,-6.561 -1.267,-5.83 C 14.2,8.241 13.921,8.21 13.674,8.19 Z m -6.07,12.656 h 5.203 l 0.54,-11.903 z m 3.837,-10.695 a 1.709,1.709 0 0 0 1,0.412 L 13.363,8.651 13.385,8.172 C 13.085,8.158 12.842,8.16 12.627,8.162 H 12.519 C 10.968,8.173 10.091,8.215 9.253,8.274 9.153,8.281 8.991,8.291 8.808,8.301 8.188,8.337 7.25,8.392 6.622,8.473 H 6.61 c -0.017,0 -0.036,0.007 -0.055,0.009 0.105,0.125 0.393,0.16 0.826,0.212 a 8.925,8.925 0 0 1 2.839,0.751 7.865,7.865 0 0 1 1.221,0.706 z m 3.324,-1.289 0.083,0.381 0.002,-0.002 z"/>

</svg>
